X: 1
T: Paddy Fahy's
M: 4/4
L: 1/8
R: reel
K: Fmaj
A|:B2dB DFBd|cBcA FAcA| B2dB DFBd| cBcA BGGA |
BDGA BDGB| ADFA c2=Bc|d~g3 dc=Bd |1c=BcF DGGA:|2c=BcF DGG^f||
K:Gmaj
|:g2dg Bdga |=f2cf Acfa |gfgd ABcA |dgfa gfga |
{b}ag{a}gf gfdc |(3Bcd BG DE=FA |d~g3 dcBd | cBcF DGGf:|
